svg/u1f4b1.svg

<svg viewBox="0 0 128 128" xmlns="http://www.w3.org/2000/svg">
  <path d="M89,105.16c0,0-0.01,3.76-0.01,4.22s2.05,1.44,5.76,1.48s5.84-0.9,5.84-1.23s-0.03-4.41-0.03-4.41 s-2.69-2.61-5.12-2.67S89,105.16,89,105.16z" fill="#464C4F"/>
  <path d="M25.87,3.13c-1.04,0.01-1.57,0.11-1.57,2.47s0.22,74.85,0.22,75.64c0,0.79,0.79,1.12,2.14,1.12 c1.35,0,4.61,0,5.51,0c0.9,0,1.24-0.56,1.12-2.02S33.16,5.72,33.16,4.82s-0.41-1.6-1.84-1.65C30.15,3.13,27.1,3.12,25.87,3.13z" fill="#606265"/>
  <path d="M16.41,29.6c0,0-0.16-4.12,2.74-6.78c2.68-2.45,5.17-2.27,5.17-2.27l0.02,4.08 c0,0,1.52-0.53,4.1-0.42s4.7,1,4.7,1v-4.28c0,0,1.43-0.06,3.58,2.47c1.08,1.27,1.97,3.91,2.26,5.29c0.38,1.77,1.03,2.6,2.74,2.72 c1.71,0.12,3.02,0.11,4.07,0.07c1.51-0.05-3.21-8.25-3.21-8.25s-5.27-7.96-6.99-8.01c-1.72-0.05-12.37,0.22-13.39,0.75 c-1.02,0.54-7.69,5.22-7.69,5.22l-0.91,7.26c0,0,2.53,2.96,2.53,2.74C16.15,31,16.41,29.6,16.41,29.6z" fill="#464C4F"/>
  <path d="M11.3,29.6l-5.02-3.95c0,0-1.07,8.14,2.99,13.04c2.97,3.59,6.45,5.06,9.52,6.4 c2.86,1.26,5.63,2.12,5.63,2.12l0.01,4.81l8.78,4.67l-0.01-6.31c0,0,3.33,1.81,5,3.59c1.67,1.77,1.83,3.98,1.88,5.38 c0.05,1.4-0.65,3.6-0.65,3.6l-0.97,4.3l11.19-11.29l-26.4-17.53L11.3,29.6z" fill="#464C4F"/>
  <path d="M6.88,54.85c0,0-1.34,1.15-0.95,4.27c0.36,2.9,1.99,7.42,6.88,11.4s11.7,4.74,11.7,4.74v3.32 l8.74-0.02l-0.01-3.3c0,0,5.22-0.22,9.63-3.02c4.61-2.93,7.99-8.9,7.79-14.5c-0.07-1.97-1.32-1.66-1.32-1.66S33.3,69.99,32.23,70.1 c-1.08,0.11-11.51-1.72-11.51-1.72l-9.73-10.59L6.88,54.85z" fill="#464C4F"/>
  <path d="M10.98,53.69c-3.27,0.32-4.41,0.97-4.46,1.94C6.47,56.6,9.32,73.5,29.21,73.22 c19.09-0.27,21.35-11.88,21.51-16.4c0.19-5.43-3.01-9.95-10.22-14.2c-5.37-3.16-18.34-7.91-20.49-9.25 c-1.98-1.24-4.73-3.98-4.36-8.07c0.38-4.09,4.84-8.12,13.07-8.07c8.23,0.05,11.47,5.78,12.1,7.48c1.01,2.73,0.82,6.28,2.31,6.75 c0.7,0.22,2.74,0.13,3.92-0.03c1.18-0.16,2.86-1.07,2.96-3.44c0.11-2.74-2.74-18.07-21.78-17.91c-18.18,0.15-22.65,11.3-21.95,17.7 c0.66,6.07,5.6,11.77,13.56,15s22.05,7.15,21.89,14.41c-0.14,6.51-7.7,8.82-13.93,8.5c-6.29-0.32-9.73-3.98-11.02-8.28 C15.55,53.28,13.19,53.48,10.98,53.69z" fill="#606265"/>
  <path d="M14,55.75c-0.67-1.25-5.15-1.06-5.73,1.06s1.47,5.41,2.85,5.12c1.88-0.39,0.29-2.66,1.02-3.52 C12.88,57.54,14.83,57.3,14,55.75z" fill="#9A9A9B"/>
  <path d="M28.4,4.25c-1.31-0.03-2.78-0.05-2.85,1.72c-0.07,1.7,0.04,3.01,0.71,3.08 c0.75,0.08,1.81-1.54,2.27-2.24C29.1,5.92,29.81,4.29,28.4,4.25z" fill="#9A9A9B"/>
  <path d="M18.35,14.62c-0.5-0.73-3.31-1.31-7.19,3.48s-2.45,7.33-1.56,7.44c1.21,0.15,1.88-0.84,2.62-2.47 c1.06-2.32,2.32-3.73,4.29-5.22C18.19,16.58,19.21,15.88,18.35,14.62z" fill="#9A9A9B"/>
  <path d="M74.01,84.47c0,0,0,1.2,0,1.79c0,0.6,0.51,1.09,1.73,1.14c1.22,0.05,38.59,0.1,38.81,0.08 c0.38-0.04,0.39-0.49,0.39-0.77c0.03-1.1,0.02-2.23,0.02-2.23l-35.06-1.84L74.01,84.47z" fill="#464C4F"/>
  <path d="M74.02,94.71c0,0,0,2.59,0,2.86c0.01,0.53,0.42,0.63,1.17,0.64c0.76,0,37.82,0,38.36,0 s0.97-0.31,0.99-0.91c0.03-0.82,0.01-2.59,0.01-2.59l-20.21-2.13L74.02,94.71z" fill="#464C4F"/>
  <rect height="4.66" fill="#606265" width="40.96" x="74" y="79.85"/>
  <rect height="4.35" fill="#606265" width="40.55" x="74.01" y="90.39"/>
  <path d="M89,105.16l0.52-25.33c0,0-23.23-34.82-22.97-35.35c0.27-0.53,13.7-0.28,14.37,0.12 c0.67,0.4,13.91,21.31,14.49,21.3c0.6-0.01,13.22-20.56,13.75-20.96c0.53-0.4,14.29-0.52,14.29,0.02s-22.98,34.93-22.98,34.93 l0.09,25.41c0,0-3.52,0.23-5.78,0.23S89,105.16,89,105.16z" fill="#606265"/>
  <path d="M79.13,46.83c0.03,0.71-4.02,4.62-4.82,4.62c-0.8,0-2.83-2.73-3.27-4.32 c-0.3-1.08,3.16-1.27,4.48-1.27C76.85,45.87,79.09,45.91,79.13,46.83z" fill="#9A9A9B"/>
  <path d="M110.55,47.08c-0.43,0.26-4.17,4.49-2.52,5.81c1.17,0.94,3.52-1.35,5.32-2.15 c1.8-0.8,4.77-1.46,4.74-2.94C118.05,45.98,112.12,46.12,110.55,47.08z" fill="#9A9A9B"/>
  <path d="M54.67,16.64c1.03,1.41,5.05-0.66,8.44-1.16c3.39-0.5,8.94-1.41,17.13,2.48s12.99,9.52,12.91,9.93 c-0.08,0.41-7.61,2.37-9.76,3.45c-1.8,0.9-2.55,2.16-2.24,3.67c0.29,1.43,1.42,2.2,3.07,2.61c2.88,0.72,22.73,2.65,25.71-0.17 c3.74-3.53,2.79-22.18,2.56-24.38c-0.34-3.37-1.28-4.51-2.98-4.79c-1.49-0.25-2.98,0.41-3.89,2.67c-1.03,2.54-2.8,8.99-3.3,8.99 c-0.5,0-5.86-8.1-15.38-11.41S68.99,6.71,63.94,8.61C58.54,10.65,53.35,14.82,54.67,16.64z" fill="#02AB47"/>
  <path d="M42.34,103.09c-0.33,0.44,4.19,8.2,14.03,11.11s21.33-2.27,22.59,0.18 c1.64,3.19-12.35,13.85-29.6,8.11c-14.48-4.82-16.85-14.12-17.3-14.03s-3.98,4.67-4.92,5.74c-2.2,2.5-7.38,1-6.01-3.73 c1.85-6.42,6.75-20.99,9.38-21.95c3.52-1.29,20.95,7.37,22.22,8.11c2.37,1.37,2.91,5.65-1.37,5.92 C48.72,102.71,42.62,102.73,42.34,103.09z" fill="#02AB47"/>
</svg>

<svg viewBox="0 0 128 128" xmlns="http://www.w3.org/2000/svg">
  <defs/>
  <path d="M89,105.16 C89,105.16 88.99,108.92 88.99,109.38 C88.99,109.84 91.04,110.82 94.75,110.86 C98.46,110.9 100.59,109.96 100.59,109.63 C100.59,109.3 100.56,105.22 100.56,105.22 C100.56,105.22 97.87,102.61 95.44,102.55 C93.01,102.49 89,105.16 89,105.16 Z" fill="#464C4F"/>
  <path d="M25.87,3.13 C24.83,3.14 24.3,3.24 24.3,5.6 C24.3,7.96 24.52,80.45 24.52,81.24 C24.52,82.03 25.31,82.36 26.66,82.36 C28.01,82.36 31.27,82.36 32.17,82.36 C33.07,82.36 33.41,81.8 33.29,80.34 C33.17,78.88 33.16,5.72 33.16,4.82 C33.16,3.92 32.75,3.22 31.32,3.17 C30.15,3.13 27.1,3.12 25.87,3.13 Z" fill="#606265"/>
  <path d="M16.41,29.6 C16.41,29.6 16.25,25.48 19.15,22.82 C21.83,20.37 24.32,20.55 24.32,20.55 L24.34,24.63 C24.34,24.63 25.86,24.1 28.44,24.21 C31.02,24.32 33.14,25.21 33.14,25.21 L33.14,20.93 C33.14,20.93 34.57,20.87 36.72,23.4 C37.8,24.67 38.69,27.31 38.98,28.69 C39.36,30.46 40.01,31.29 41.72,31.41 C43.43,31.53 44.74,31.52 45.79,31.48 C47.3,31.43 42.58,23.23 42.58,23.23 C42.58,23.23 37.31,15.27 35.59,15.22 C33.87,15.17 23.22,15.44 22.2,15.97 C21.18,16.51 14.51,21.19 14.51,21.19 L13.6,28.45 C13.6,28.45 16.13,31.41 16.13,31.19 C16.15,31 16.41,29.6 16.41,29.6 Z" fill="#464C4F"/>
  <path d="M11.3,29.6 L6.28,25.65 C6.28,25.65 5.21,33.79 9.27,38.69 C12.24,42.28 15.72,43.75 18.79,45.09 C21.65,46.35 24.42,47.21 24.42,47.21 L24.43,52.02 L33.21,56.69 L33.2,50.38 C33.2,50.38 36.53,52.19 38.2,53.97 C39.87,55.74 40.03,57.95 40.08,59.35 C40.13,60.75 39.43,62.95 39.43,62.95 L38.46,67.25 L49.65,55.96 L23.25,38.43 L11.3,29.6 Z" fill="#464C4F"/>
  <path d="M6.88,54.85 C6.88,54.85 5.54,56 5.93,59.12 C6.29,62.02 7.92,66.54 12.81,70.52 C17.7,74.5 24.51,75.26 24.51,75.26 L24.51,78.58 L33.25,78.56 L33.24,75.26 C33.24,75.26 38.46,75.04 42.87,72.24 C47.48,69.31 50.86,63.34 50.66,57.74 C50.59,55.77 49.34,56.08 49.34,56.08 C49.34,56.08 33.3,69.99 32.23,70.1 C31.15,70.21 20.72,68.38 20.72,68.38 L10.99,57.79 L6.88,54.85 Z" fill="#464C4F"/>
  <path d="M10.98,53.69 C7.71,54.01 6.57,54.66 6.52,55.63 C6.47,56.6 9.32,73.5 29.21,73.22 C48.3,72.95 50.56,61.34 50.72,56.82 C50.91,51.39 47.71,46.87 40.5,42.62 C35.13,39.46 22.16,34.71 20.01,33.37 C18.03,32.13 15.28,29.39 15.65,25.3 C16.03,21.21 20.49,17.18 28.72,17.23 C36.95,17.28 40.19,23.01 40.82,24.71 C41.83,27.44 41.64,30.99 43.13,31.46 C43.83,31.68 45.87,31.59 47.05,31.43 C48.23,31.27 49.91,30.36 50.01,27.99 C50.12,25.25 47.27,9.92 28.23,10.08 C10.05,10.23 5.58,21.38 6.28,27.78 C6.94,33.85 11.88,39.55 19.84,42.78 C27.8,46.01 41.89,49.93 41.73,57.19 C41.59,63.7 34.03,66.01 27.8,65.69 C21.51,65.37 18.07,61.71 16.78,57.41 C15.55,53.28 13.19,53.48 10.98,53.69 Z" fill="#606265"/>
  <path d="M14,55.75 C13.33,54.5 8.85,54.69 8.27,56.81 C7.69,58.93 9.74,62.22 11.12,61.93 C13,61.54 11.41,59.27 12.14,58.41 C12.88,57.54 14.83,57.3 14,55.75 Z" fill="#9A9A9B"/>
  <path d="M28.4,4.25 C27.09,4.22 25.62,4.2 25.55,5.97 C25.48,7.67 25.59,8.98 26.26,9.05 C27.01,9.13 28.07,7.51 28.53,6.81 C29.1,5.92 29.81,4.29 28.4,4.25 Z" fill="#9A9A9B"/>
  <path d="M18.35,14.62 C17.85,13.89 15.04,13.31 11.16,18.1 C7.28,22.89 8.71,25.43 9.6,25.54 C10.81,25.69 11.48,24.7 12.22,23.07 C13.28,20.75 14.54,19.34 16.51,17.85 C18.19,16.58 19.21,15.88 18.35,14.62 Z" fill="#9A9A9B"/>
  <path d="M74.01,84.47 C74.01,84.47 74.01,85.67 74.01,86.26 C74.01,86.86 74.52,87.35 75.74,87.4 C76.96,87.45 114.33,87.5 114.55,87.48 C114.93,87.44 114.94,86.99 114.94,86.71 C114.97,85.61 114.96,84.48 114.96,84.48 L79.9,82.64 L74.01,84.47 Z" fill="#464C4F"/>
  <path d="M74.02,94.71 C74.02,94.71 74.02,97.3 74.02,97.57 C74.03,98.1 74.44,98.2 75.19,98.21 C75.95,98.21 113.01,98.21 113.55,98.21 C114.09,98.21 114.52,97.9 114.54,97.3 C114.57,96.48 114.55,94.71 114.55,94.71 L94.34,92.58 L74.02,94.71 Z" fill="#464C4F"/>
  <path d="M74,79.85 L114.96,79.85 L114.96,84.51 L74,84.51 L74,79.85 Z" fill="#606265"/>
  <path d="M74.01,90.39 L114.56,90.39 L114.56,94.74 L74.01,94.74 L74.01,90.39 Z" fill="#606265"/>
  <path d="M89,105.16 L89.52,79.83 C89.52,79.83 66.29,45.01 66.55,44.48 C66.82,43.95 80.25,44.2 80.92,44.6 C81.59,45 94.83,65.91 95.41,65.9 C96.01,65.89 108.63,45.34 109.16,44.94 C109.69,44.54 123.45,44.42 123.45,44.96 C123.45,45.5 100.47,79.89 100.47,79.89 L100.56,105.3 C100.56,105.3 97.04,105.53 94.78,105.53 C92.52,105.53 89,105.16 89,105.16 Z" fill="#606265"/>
  <path d="M79.13,46.83 C79.16,47.54 75.11,51.45 74.31,51.45 C73.51,51.45 71.48,48.72 71.04,47.13 C70.74,46.05 74.2,45.86 75.52,45.86 C76.85,45.87 79.09,45.91 79.13,46.83 Z" fill="#9A9A9B"/>
  <path d="M110.55,47.08 C110.12,47.34 106.38,51.57 108.03,52.89 C109.2,53.83 111.55,51.54 113.35,50.74 C115.15,49.94 118.12,49.28 118.09,47.8 C118.05,45.98 112.12,46.12 110.55,47.08 Z" fill="#9A9A9B"/>
  <path d="M54.67,16.64 C55.7,18.05 59.72,15.98 63.11,15.48 C66.5,14.98 72.05,14.07 80.24,17.96 C88.43,21.85 93.23,27.48 93.15,27.89 C93.07,28.3 85.54,30.26 83.39,31.34 C81.59,32.24 80.84,33.5 81.15,35.01 C81.44,36.44 82.57,37.21 84.22,37.62 C87.1,38.34 106.95,40.27 109.93,37.45 C113.67,33.92 112.72,15.27 112.49,13.07 C112.15,9.7 111.21,8.56 109.51,8.28 C108.02,8.03 106.53,8.69 105.62,10.95 C104.59,13.49 102.82,19.94 102.32,19.94 C101.82,19.94 96.46,11.84 86.94,8.53 C77.42,5.22 68.99,6.71 63.94,8.61 C58.54,10.65 53.35,14.82 54.67,16.64 Z" fill="#02AB47"/>
  <path d="M42.34,103.09 C42.01,103.53 46.53,111.29 56.37,114.2 C66.21,117.11 77.7,111.93 78.96,114.38 C80.6,117.57 66.61,128.23 49.36,122.49 C34.88,117.67 32.51,108.37 32.06,108.46 C31.61,108.55 28.08,113.13 27.14,114.2 C24.94,116.7 19.76,115.2 21.13,110.47 C22.98,104.05 27.88,89.48 30.51,88.52 C34.03,87.23 51.46,95.89 52.73,96.63 C55.1,98 55.64,102.28 51.36,102.55 C48.72,102.71 42.62,102.73 42.34,103.09 Z" fill="#02AB47"/>
</svg>
